website/client/static/logo/semrush-logo.svg

<svg width="30" height="18" viewBox="0 0 30 18" fill="none" xmlns="http://www.w3.org/2000/svg">
  <path d="M25.8728 8.88085C25.8728 9.43689 25.587 9.53222 24.8886 9.53222C24.1425 9.53222 23.9996 9.40512 23.9203 8.84908C23.7774 7.40336 22.8091 6.18005 21.1741 6.05296C20.6661 6.0053 20.5233 5.81465 20.5233 5.16328C20.5233 4.55958 20.6026 4.2895 21.0788 4.2895C23.9203 4.27361 25.8728 6.54545 25.8728 8.88085ZM30 8.88085C30 4.55958 27.0792 0 20.3328 0H6.95102C6.39543 0 6.30019 0.47661 6.77641 0.778463C7.9987 1.5887 9.71309 2.49426 11.2211 3.06619C11.8561 3.3045 11.7291 3.87643 11.0941 3.87643H0.49032C-0.0335203 3.87643 -0.176386 4.30539 0.252211 4.70256C2.85554 7.11739 6.57004 9.57988 10.0941 11.105C10.729 11.3751 10.602 11.947 9.96707 11.947H5.22076C4.68105 11.947 4.53818 12.3919 4.98265 12.7414C7.53836 14.6796 13.4911 18 20.3328 18C27.1744 18 30 12.8685 30 8.88085ZM21.0788 14.9974C17.7294 14.9974 14.9356 12.2648 14.9356 8.86496C14.9356 5.5128 17.7294 2.82789 21.0788 2.82789C24.5235 2.82789 27.2062 5.5128 27.2062 8.86496C27.2062 12.2648 24.5235 14.9974 21.0788 14.9974Z" fill="#FF642D"/>
</svg>

<svg width="30" height="18" viewBox="0 0 30 18" fill="none" xmlns="http://www.w3.org/2000/svg">
  <path d="M25.87 8.88c0 .56-.28.65-.98.65-.75 0-.89-.12-.97-.68-.14-1.45-1.11-2.67-2.75-2.8-.5-.04-.65-.24-.65-.89 0-.6.08-.87.56-.87a4.69 4.69 0 014.8 4.6zm4.13 0C30 4.56 27.08 0 20.33 0H6.95c-.55 0-.65.48-.17.78 1.22.8 2.93 1.71 4.44 2.29.64.23.5.8-.13.8H.5c-.52 0-.67.44-.24.83a37.05 37.05 0 009.84 6.4c.64.28.51.85-.12.85H5.22c-.54 0-.68.44-.24.8C7.54 14.67 13.5 18 20.33 18S30 12.87 30 8.88zM21.08 15a6.16 6.16 0 01-6.14-6.14 6.1 6.1 0 016.14-6.03 6.08 6.08 0 110 12.17z" fill="#FF642D"/>
</svg>
